src/assets/duotone/Folder2.svg

<svg width="24" height="24" viewBox="0 0 24 24"  xmlns="http://www.w3.org/2000/svg">
<path opacity="0.4" d="M15.7201 2H8.28008C7.90008 2 7.58008 2.32 7.58008 2.7C7.58008 3.08 7.90008 3.4 8.28008 3.4H11.5401L12.9401 5.26C13.2501 5.67 13.2901 5.73 13.8701 5.73H17.5901C17.9701 5.73 18.3401 5.78 18.7001 5.88C18.7401 6.06 18.7601 6.24 18.7601 6.43V6.78C18.7601 7.16 19.0801 7.48 19.4601 7.48C19.8401 7.48 20.1601 7.16 20.1601 6.78V6.42C20.1401 3.98 18.1601 2 15.7201 2Z" />
<path d="M20.14 6.54C19.71 6.23 19.22 6 18.69 5.87C18.34 5.77 17.96 5.72 17.58 5.72H13.86C13.28 5.72 13.24 5.66 12.93 5.25L11.53 3.39C10.88 2.53 10.37 2 8.74 2H6.42C3.98 2 2 3.98 2 6.42V17.58C2 20.02 3.98 22 6.42 22H17.58C20.02 22 22 20.02 22 17.58V10.14C22 8.65 21.27 7.34 20.14 6.54ZM14.33 16H9.67C9.28 16 8.97 15.69 8.97 15.3C8.97 14.92 9.28 14.6 9.67 14.6H14.32C14.7 14.6 15.02 14.92 15.02 15.3C15.02 15.69 14.71 16 14.33 16Z" />
</svg>

<?xml version="1.0" encoding="UTF-8"?>
<svg width="24" height="24" viewBox="0 0 24 24" xmlns="http://www.w3.org/2000/svg">
 <path d="m15.72 2h-7.44c-0.38 0-0.7 0.32-0.7 0.7s0.32 0.7 0.7 0.7h3.26l1.4 1.86c0.31 0.41 0.35 0.47 0.93 0.47h3.72c0.38 0 0.75 0.05 1.11 0.15 0.04 0.18 0.06 0.36 0.06 0.55v0.35c0 0.38 0.32 0.7 0.7 0.7s0.7-0.32 0.7-0.7v-0.36c-0.02-2.44-2-4.42-4.44-4.42z" opacity=".4"/>
 <path d="m20.14 6.54c-0.43-0.31-0.92-0.54-1.45-0.67-0.35-0.1-0.73-0.15-1.11-0.15h-3.72c-0.58 0-0.62-0.06-0.93-0.47l-1.4-1.86c-0.65-0.86-1.16-1.39-2.79-1.39h-2.32c-2.44 0-4.42 1.98-4.42 4.42v11.16c0 2.44 1.98 4.42 4.42 4.42h11.16c2.44 0 4.42-1.98 4.42-4.42v-7.44c0-1.49-0.73-2.8-1.86-3.6zm-5.81 9.46h-4.66c-0.39 0-0.7-0.31-0.7-0.7 0-0.38 0.31-0.7 0.7-0.7h4.65c0.38 0 0.7 0.32 0.7 0.7 0 0.39-0.31 0.7-0.69 0.7z"/>
</svg>
